icons/coin.svg

<svg xmlns="http://www.w3.org/2000/svg" viewBox="0 0 24 24" fill="currentColor">
  <path d="M3.75 12c0-4.55635 3.69365-8.25 8.25-8.25 4.5563 0 8.25 3.69365 8.25 8.25 0 4.5563-3.6937 8.25-8.25 8.25-4.55635 0-8.25-3.6937-8.25-8.25ZM12 2.25c-5.38478 0-9.75 4.36522-9.75 9.75 0 5.3848 4.36522 9.75 9.75 9.75 5.3848 0 9.75-4.3652 9.75-9.75 0-5.38478-4.3652-9.75-9.75-9.75ZM7.75 12c0-2.34721 1.90279-4.25 4.25-4.25 2.3472 0 4.25 1.90279 4.25 4.25 0 2.3472-1.9028 4.25-4.25 4.25-2.34721 0-4.25-1.9028-4.25-4.25ZM12 6.25c-3.17564 0-5.75 2.57436-5.75 5.75 0 3.1756 2.57436 5.75 5.75 5.75 3.1756 0 5.75-2.5744 5.75-5.75 0-3.17564-2.5744-5.75-5.75-5.75Z"/>
</svg>

<svg width="24" height="24" viewBox="0 0 24 24" fill="none" xmlns="http://www.w3.org/2000/svg">
<path fill-rule="evenodd" clip-rule="evenodd" d="M3.75 12C3.75 7.44365 7.44365 3.75 12 3.75C16.5563 3.75 20.25 7.44365 20.25 12C20.25 16.5563 16.5563 20.25 12 20.25C7.44365 20.25 3.75 16.5563 3.75 12ZM12 2.25C6.61522 2.25 2.25 6.61522 2.25 12C2.25 17.3848 6.61522 21.75 12 21.75C17.3848 21.75 21.75 17.3848 21.75 12C21.75 6.61522 17.3848 2.25 12 2.25ZM7.75 12C7.75 9.65279 9.65279 7.75 12 7.75C14.3472 7.75 16.25 9.65279 16.25 12C16.25 14.3472 14.3472 16.25 12 16.25C9.65279 16.25 7.75 14.3472 7.75 12ZM12 6.25C8.82436 6.25 6.25 8.82436 6.25 12C6.25 15.1756 8.82436 17.75 12 17.75C15.1756 17.75 17.75 15.1756 17.75 12C17.75 8.82436 15.1756 6.25 12 6.25Z" fill="black"/>
</svg>
